X: 373
T: Banjo Tramp
B: jims roots
M:2/4
L:1/8
R: Reel
Q: 1/4=100
K:D
V:1 
AAB||"D"A2F2A2d2 | f4-f2 f2 |"G"e2d2c2B2 | "D"A4- A2 AB | "D"A2F2A2d2 | f4- f2 f2 |
"G"e2B2c2d2 | "A"e4- e2 AB || "D"A2F2A2d2 | f4- f2 f2 | "G"e2d2c2B2 | "D"A4- A2 Bc |
"G"dcdA "D"F2 Bc | "G"dcdA "D"F2 Bc | d2 f2 "A"ed c2 | "D"d4= dd fg ||
"D"a3 b a2g2 | f4- f2 f2 | "G"e2 d2 c2 B2 | "D"A4- A2 fg | "D"a3 b a2g2 | f4- f2 f2 |
"G"e2 B2c2 d2 | "A"e4= e2 fg || "D"a3 b a2 g2 | f4- f2 f2 | "G"e2 d2 c2 B2 | "D"A4- A2 bc |
"G"dcda "D"f2 Bc | "G"dcdA "D"f2 Bc | d2f2 "A"ed c2 | "D"d4- d2 AB |]
% abcbook-tune_id 6298c2458200a309845a85de


% abcbook-boost 0
% abcbook-tablature 
% abcbook-transpose 
% abcbook-lastupdated 1654178373249
% abcbook-soundfonts 
% abcbook-repeats 1


